src/assets/icon/objects.svg

<svg width="24" height="24" viewBox="0 0 24 24" fill="currentColor" xmlns="http://www.w3.org/2000/svg">
<path fill-rule="evenodd" clip-rule="evenodd" d="M6.72346 4.29999L3.82516 9.31999H9.62175L6.72346 4.29999ZM7.58948 2.79999C7.20458 2.13332 6.24233 2.13332 5.85743 2.79999L2.09311 9.31999C1.70821 9.98665 2.18933 10.82 2.95914 10.82H10.4878C11.2576 10.82 11.7387 9.98665 11.3538 9.31998L7.58948 2.79999Z" fill="currentColor"/>
<path fill-rule="evenodd" clip-rule="evenodd" d="M6.83674 20.2C8.512 20.2 9.87007 18.8419 9.87007 17.1667C9.87007 15.4914 8.512 14.1333 6.83674 14.1333C5.16148 14.1333 3.80341 15.4914 3.80341 17.1667C3.80341 18.8419 5.16148 20.2 6.83674 20.2ZM6.83674 21.7C9.34043 21.7 11.3701 19.6704 11.3701 17.1667C11.3701 14.663 9.34043 12.6333 6.83674 12.6333C4.33305 12.6333 2.30341 14.663 2.30341 17.1667C2.30341 19.6704 4.33305 21.7 6.83674 21.7Z" fill="currentColor"/>
<path fill-rule="evenodd" clip-rule="evenodd" d="M14.5701 14.1333V20.1056H20.5424V14.1333H14.5701ZM14.0701 12.6333C13.5178 12.6333 13.0701 13.081 13.0701 13.6333V20.6056C13.0701 21.1578 13.5178 21.6056 14.0701 21.6056H21.0424C21.5946 21.6056 22.0424 21.1578 22.0424 20.6056V13.6333C22.0424 13.081 21.5946 12.6333 21.0424 12.6333H14.0701Z" fill="currentColor"/>
</svg>

<svg xmlns="http://www.w3.org/2000/svg" width="24" height="24" fill="currentColor" viewBox="0 0 24 24">
  <path fill-rule="evenodd" d="M6.723 4.3 3.825 9.32h5.797L6.723 4.3Zm.866-1.5a1 1 0 0 0-1.732 0L2.093 9.32a1 1 0 0 0 .866 1.5h7.529a1 1 0 0 0 .866-1.5L7.589 2.8Zm-.752 17.4a3.033 3.033 0 1 0 0-6.067 3.033 3.033 0 0 0 0 6.067Zm0 1.5a4.533 4.533 0 1 0 0-9.067 4.533 4.533 0 0 0 0 9.067Zm7.733-7.567v5.973h5.972v-5.973H14.57Zm-.5-1.5a1 1 0 0 0-1 1v6.973a1 1 0 0 0 1 1h6.972a1 1 0 0 0 1-1v-6.973a1 1 0 0 0-1-1H14.07Z" clip-rule="evenodd"/>
</svg>
